X: 23711
T: Lisnagun, The
R: jig
M: 6/8
K: Cmajor
AFE ~A3|Bce c3|Bce cBA|BAF AFE|
AFE ~A3|Bce c3|Bce cBA|1 BAF A3:|2 BAF ABd||
|:e2 d cBA|Bce cBA|ece cBA|BAF AFE|
~e3 cBA|Bce cBA|ece cBA|BAF A3|
~e3 cBA|Bce cBA|ece cBA|BAF AFE|
AFE ~A3|Bce c3|Bce cBA|BAF A3||
cAG ~c3|cdg ~e3|cdg edc|dcA cAG|
cAG ~c3|cdg ~e3|cdg edc|dcA ~c3:|
~g3 age|deg ~e3|deg edc|dcA cAG|
~g3 age|deg ~e3|deg edc|dcA ~c3|
~g3 age|deg ~e3|deg edc|dcA cAG|
cAG ~c3|cdg ~e3|cdg edc|dcA ~c3||

